.svelte-kit/output/client/library/social-懂球帝.svg

<svg width="48" height="48" viewBox="0 0 48 48" fill="none" xmlns="http://www.w3.org/2000/svg">
<rect x="6" y="6" width="36" height="36" rx="8" fill="#04D11E"/>
<mask id="mask0_1_199" style="mask-type:alpha" maskUnits="userSpaceOnUse" x="11" y="11" width="26" height="26">
<circle cx="24" cy="24" r="13" fill="#D9D9D9"/>
</mask>
<g mask="url(#mask0_1_199)">
<path d="M23.5 18.222C23.8094 18.0434 24.1906 18.0434 24.5 18.222L28.7538 20.678C29.0632 20.8566 29.2538 21.1867 29.2538 21.544V26.456C29.2538 26.8132 29.0632 27.1434 28.7538 27.322L24.5 29.778C24.1906 29.9566 23.8094 29.9566 23.5 29.778L19.2461 27.322C18.9367 27.1434 18.7461 26.8132 18.7461 26.456V21.544C18.7461 21.1867 18.9367 20.8566 19.2461 20.678L23.5 18.222Z" fill="white"/>
<path d="M35.6333 18.222C35.9427 18.0434 36.3239 18.0434 36.6333 18.222L40.8871 20.678C41.1965 20.8566 41.3871 21.1867 41.3871 21.544V26.456C41.3871 26.8132 41.1965 27.1434 40.8871 27.322L36.6333 29.778C36.3239 29.9566 35.9427 29.9566 35.6333 29.778L31.3794 27.322C31.07 27.1434 30.8794 26.8132 30.8794 26.456V21.544C30.8794 21.1867 31.07 20.8566 31.3794 20.678L35.6333 18.222Z" fill="white"/>
<path d="M11.3667 18.222C11.6761 18.0434 12.0573 18.0434 12.3667 18.222L16.6205 20.678C16.9299 20.8566 17.1205 21.1867 17.1205 21.544V26.456C17.1205 26.8132 16.9299 27.1434 16.6205 27.322L12.3667 29.778C12.0573 29.9566 11.6761 29.9566 11.3667 29.778L7.11277 27.322C6.80337 27.1434 6.61277 26.8132 6.61277 26.456V21.544C6.61277 21.1867 6.80337 20.8566 7.11277 20.678L11.3667 18.222Z" fill="white"/>
<path d="M28.7539 20.678C29.0633 20.8566 29.2539 21.1868 29.2539 21.544L29.2539 26.456C29.2539 26.8133 29.0633 27.1434 28.7539 27.322L24.5 29.778C24.1906 29.9566 23.8094 29.9566 23.5 29.778L19.2461 27.322C18.9367 27.1434 18.7461 26.8133 18.7461 26.456L18.7461 21.544C18.7461 21.1868 18.9367 20.8566 19.2461 20.678L23.5 18.222C23.8094 18.0434 24.1906 18.0434 24.5 18.222L28.7539 20.678Z" fill="white"/>
<path d="M34.8206 31.1858C35.13 31.3644 35.3206 31.6946 35.3206 32.0518L35.3206 36.9638C35.3206 37.3211 35.13 37.6512 34.8206 37.8298L30.5667 40.2858C30.2573 40.4644 29.8761 40.4644 29.5667 40.2858L25.3128 37.8298C25.0034 37.6512 24.8128 37.3211 24.8128 36.9638L24.8128 32.0518C24.8128 31.6946 25.0034 31.3644 25.3128 31.1858L29.5667 28.7298C29.8761 28.5512 30.2573 28.5512 30.5667 28.7298L34.8206 31.1858Z" fill="white"/>
<path d="M22.6872 10.1702C22.9966 10.3489 23.1872 10.679 23.1872 11.0363L23.1872 15.9482C23.1872 16.3055 22.9966 16.6356 22.6872 16.8142L18.4333 19.2702C18.1239 19.4489 17.7427 19.4489 17.4333 19.2702L13.1794 16.8142C12.87 16.6356 12.6794 16.3055 12.6794 15.9482L12.6794 11.0363C12.6794 10.679 12.87 10.3489 13.1794 10.1702L17.4333 7.71425C17.7427 7.53561 18.1239 7.53561 18.4333 7.71425L22.6872 10.1702Z" fill="white"/>
<path d="M18.7461 21.544C18.7461 21.1868 18.9367 20.8567 19.2461 20.678L23.5 18.222C23.8094 18.0434 24.1906 18.0434 24.5 18.222L28.7538 20.678C29.0632 20.8567 29.2538 21.1868 29.2538 21.544L29.2538 26.456C29.2538 26.8133 29.0632 27.1434 28.7538 27.322L24.5 29.778C24.1906 29.9567 23.8094 29.9567 23.5 29.778L19.2461 27.322C18.9367 27.1434 18.7461 26.8133 18.7461 26.456L18.7461 21.544Z" fill="white"/>
<path d="M24.8128 11.0363C24.8128 10.679 25.0034 10.3489 25.3128 10.1702L29.5667 7.71425C29.8761 7.53562 30.2573 7.53562 30.5667 7.71425L34.8206 10.1702C35.13 10.3489 35.3206 10.679 35.3206 11.0363L35.3206 15.9482C35.3206 16.3055 35.13 16.6356 34.8206 16.8143L30.5667 19.2702C30.2573 19.4489 29.8761 19.4489 29.5667 19.2702L25.3128 16.8143C25.0034 16.6356 24.8128 16.3055 24.8128 15.9482L24.8128 11.0363Z" fill="white"/>
<path d="M12.6794 32.0518C12.6794 31.6945 12.87 31.3644 13.1794 31.1858L17.4333 28.7298C17.7427 28.5512 18.1239 28.5512 18.4333 28.7298L22.6872 31.1858C22.9966 31.3644 23.1872 31.6945 23.1872 32.0518L23.1872 36.9638C23.1872 37.321 22.9966 37.6512 22.6872 37.8298L18.4333 40.2858C18.1239 40.4644 17.7427 40.4644 17.4333 40.2858L13.1794 37.8298C12.87 37.6512 12.6794 37.321 12.6794 36.9638L12.6794 32.0518Z" fill="white"/>
</g>
</svg>

<svg width="48" height="48" fill="none" xmlns="http://www.w3.org/2000/svg"><rect x="6" y="6" width="36" height="36" rx="8" fill="#04D11E"/><mask id="a" style="mask-type:alpha" maskUnits="userSpaceOnUse" x="11" y="11" width="26" height="26"><circle cx="24" cy="24" r="13" fill="#D9D9D9"/></mask><g mask="url(#a)" fill="#fff"><path d="M23.5 18.222a1 1 0 0 1 1 0l4.254 2.456a1 1 0 0 1 .5.866v4.912a1 1 0 0 1-.5.866L24.5 29.778a1 1 0 0 1-1 0l-4.254-2.456a1 1 0 0 1-.5-.866v-4.912a1 1 0 0 1 .5-.866l4.254-2.456ZM35.633 18.222a1 1 0 0 1 1 0l4.254 2.456a1 1 0 0 1 .5.866v4.912a1 1 0 0 1-.5.866l-4.254 2.456a1 1 0 0 1-1 0l-4.254-2.456a1 1 0 0 1-.5-.866v-4.912a1 1 0 0 1 .5-.866l4.254-2.456ZM11.367 18.222a1 1 0 0 1 1 0l4.253 2.456a1 1 0 0 1 .5.866v4.912a1 1 0 0 1-.5.866l-4.253 2.456a1 1 0 0 1-1 0l-4.254-2.456a1 1 0 0 1-.5-.866v-4.912a1 1 0 0 1 .5-.866l4.254-2.456Z"/><path d="M28.754 20.678a1 1 0 0 1 .5.866v4.912a1 1 0 0 1-.5.866L24.5 29.778a1 1 0 0 1-1 0l-4.254-2.456a1 1 0 0 1-.5-.866v-4.912a1 1 0 0 1 .5-.866l4.254-2.456a1 1 0 0 1 1 0l4.254 2.456ZM34.82 31.186a1 1 0 0 1 .5.866v4.912a1 1 0 0 1-.5.866l-4.253 2.456a1 1 0 0 1-1 0l-4.254-2.456a1 1 0 0 1-.5-.866v-4.912a1 1 0 0 1 .5-.866l4.254-2.456a1 1 0 0 1 1 0l4.254 2.456ZM22.687 10.17a1 1 0 0 1 .5.866v4.912a1 1 0 0 1-.5.866l-4.254 2.456a1 1 0 0 1-1 0l-4.254-2.456a1 1 0 0 1-.5-.866v-4.912a1 1 0 0 1 .5-.866l4.254-2.456a1 1 0 0 1 1 0l4.254 2.456Z"/><path d="M18.746 21.544a1 1 0 0 1 .5-.866l4.254-2.456a1 1 0 0 1 1 0l4.254 2.456a1 1 0 0 1 .5.866v4.912a1 1 0 0 1-.5.866L24.5 29.778a1 1 0 0 1-1 0l-4.254-2.456a1 1 0 0 1-.5-.866v-4.912ZM24.813 11.036a1 1 0 0 1 .5-.866l4.254-2.456a1 1 0 0 1 1 0l4.254 2.456a1 1 0 0 1 .5.866v4.912a1 1 0 0 1-.5.866l-4.254 2.456a1 1 0 0 1-1 0l-4.254-2.456a1 1 0 0 1-.5-.866v-4.912ZM12.68 32.052a1 1 0 0 1 .5-.866l4.253-2.456a1 1 0 0 1 1 0l4.254 2.456a1 1 0 0 1 .5.866v4.912a1 1 0 0 1-.5.866l-4.254 2.456a1 1 0 0 1-1 0L13.18 37.83a1 1 0 0 1-.5-.866v-4.912Z"/></g></svg>
